src/assets/icons/ico-stroke-5step.svg

<svg width="24" height="22" viewBox="0 0 24 22" fill="none" xmlns="http://www.w3.org/2000/svg">
<path d="M14.9271 18.4456C14.2269 19.0143 13.5022 19.5472 12.792 19.9383C12.0863 20.3268 11.2444 20.6644 10.3308 20.6901C9.34604 20.7177 8.41194 20.3775 7.63444 19.6463C6.85358 18.9135 6.4864 17.9863 6.4864 16.9984C6.4864 16.0927 6.79296 15.2229 7.16007 14.4657C7.84636 13.0502 9.041 11.4589 10.2052 9.90822L10.2052 9.90821L10.3809 9.6741C10.5467 9.43941 10.7333 9.17999 10.9323 8.90341L10.9324 8.90319L10.9395 8.89339C8.81963 10.7486 6.52511 13.071 4.80251 14.9963L4.77078 15.0317L4.73713 15.0654C3.66684 16.1357 2.07073 16.1206 1.01696 15.3303L0.919497 15.2572L0.833347 15.171C-0.236946 14.1007 -0.221893 12.5046 0.56843 11.4509L0.624879 11.3756L0.689226 11.307C0.753167 11.2388 0.828186 11.1584 0.913534 11.0669C1.86982 10.0422 4.12292 7.62788 6.62118 5.39063C7.97955 4.17419 9.4526 2.97145 10.8637 2.06288C12.1975 1.20412 13.7699 0.409668 15.2541 0.409668C16.0031 0.409668 16.6329 0.581095 17.1633 0.872837C17.6443 1.13738 17.9749 1.46888 18.1367 1.63116L18.1367 1.63117L18.157 1.65146L18.1734 1.66784L18.1893 1.68465C19.9397 3.53232 19.3056 5.88034 18.4907 7.58045C18.1701 8.24923 17.7618 8.94679 17.3062 9.65509C18.2676 9.20069 19.4387 8.92556 20.6458 9.4084C21.5395 9.76589 22.4443 10.5437 22.7229 11.7167C23.0695 12.8548 22.8285 13.9497 22.4957 14.8213C22.4735 14.8794 22.4505 14.9376 22.4267 14.9957C22.6402 15.1001 22.8464 15.2371 23.0372 15.4115C23.6297 15.9026 23.9264 16.6005 23.9876 17.2437C24.0539 17.9399 23.8615 18.7653 23.229 19.3978C22.7038 19.8414 21.7682 20.4623 21.366 20.7173C20.6794 21.1424 19.7224 21.5906 18.6355 21.5906C17.9269 21.5906 17.2526 21.4139 16.6279 21.106C16.4399 21.0114 16.0021 20.7439 15.7546 20.4309C15.4249 20.0749 15.18 19.6515 15.0436 19.1667C14.9746 18.9218 14.9387 18.68 14.9271 18.4456Z" fill="currentColor"/>
</svg>

<svg width="24" height="22" fill="none" xmlns="http://www.w3.org/2000/svg"><path d="M14.9271 18.4456c-.7002.5687-1.4249 1.1016-2.1351 1.4927-.7057.3885-1.5476.7261-2.4612.7518-.9848.0276-1.9189-.3126-2.6964-1.0438-.7808-.7328-1.148-1.66-1.148-2.6479 0-.9057.3066-1.7755.6737-2.5327.6863-1.4155 1.8809-3.0068 3.0451-4.5575l.1757-.2341c.1658-.2347.3524-.4941.5514-.7707l.0001-.0002.0071-.0098c-2.1199 1.8552-4.4144 4.1776-6.137 6.1029l-.0317.0354-.0337.0337c-1.0703 1.0703-2.6664 1.0552-3.7201.2649l-.0975-.0731-.0862-.0862c-1.0702-1.0703-1.0552-2.6664-.2649-3.7201l.0565-.0753.0643-.0686c.064-.0682.139-.1486.2243-.2401.9563-1.0247 3.2094-3.439 5.7077-5.6763 1.3583-1.2164 2.8314-2.4192 4.2425-3.3277C12.1975 1.204 13.7699.4097 15.2541.4097c.749 0 1.3788.1714 1.9092.4631.481.2646.8116.596.9734.7584l.0203.0203.0164.0163.0159.0169c1.7504 1.8476 1.1163 4.1956.3014 5.8957-.3206.6688-.7289 1.3664-1.1845 2.0747.9614-.4544 2.1325-.7295 3.3396-.2467.8937.3575 1.7985 1.1353 2.0771 2.3083.3466 1.1381.1056 2.233-.2272 3.1046a7.8814 7.8814 0 0 1-.069.1744c.2135.1044.4197.2414.6105.4158.5925.4911.8892 1.189.9504 1.8322.0663.6962-.1261 1.5216-.7586 2.1541-.5252.4436-1.4608 1.0645-1.863 1.3195-.6866.4251-1.6436.8733-2.7305.8733-.7086 0-1.3829-.1767-2.0076-.4846-.188-.0946-.6258-.3621-.8733-.6751-.3297-.356-.5746-.7794-.711-1.2642a3.2433 3.2433 0 0 1-.1165-.7211Z" fill="currentColor"/></svg>
